X: 38145
T: Sporting Nell
R: reel
M: 4/4
K: Dmixolydian
AD~D2 A2dc|AcAG EG~G2|AD~D2 A2dc|AcGE ED~D2:|
^cdec ~d3A|(3B^cd ef gedA|^cdec deed|^cAGE ED~D2|
^cdec ~d3A|(3B^cd ef gedg|eaag eged|^cAGE ED~D2||

